!!!OTL: RINGEL RINGEL ROSEN
!!!ARE: Europa, Mitteleuropa, Deutschland, Kassel
!!!SCT: K2079
!!!YEM: Copyright 1995, estate of Helmut Schaffrath.
**kern
*ICvox
*Ivox
*M2/4
*k[]
*C:
=1
{8g
8g
8a
8a
=2
4g
4e}
=3
{8g
8g
8a
8a
=4
4g
4e}
=5
{8g
8f
8e
8c
=6
8g
8f
4e}
=7
{8g
8g
8a
8a
=8
8g
8f
8e
8cc}
=9
{4cc
4cc
=10
2cc}
==
!!!AGN: Kinder - Lied, Reigen, Tanz - Spiel; +++ letzte Phrase korrigiert. ++++
!!!ONB: ESAC (Essen Associative Code) Database: KINDER
!!!AMT: simple duple
!!!AIN: vox
!!!EED: Helmut Schaffrath
!!!EEV: 1.0
*-
